X:20
T:Hoppvals
R:polka
Z:Smaaviltlaget, paa Skuddhold, track 12
Z:(Also Fel'Klang #90)
P:AABC
M:2/4
L:1/8
Q:1/4=120
K:D
P:A
|   "D"f3/2e/4e/4 "D/A"(fe) | "D"f3/2e/4e/4 "D/A"(fe)
|   "D"d3/2A/4A/4 "D/A"(FG) | "D"A2- "D/A"Ad
|[1 "A"c3/2A/4A/4 "A/E"(EF) | "G"G2- "G/B"GB
|   "D"A3/2F/4F/4 "D/A"(DE) | "D"F3/2E/4E/4 "D/A"(DA) :|
|[2 "A"c3/2B/4B/4 "A/E"(cd) | "A"e3/2d/4d/4 "A/E"(ef)
|   "A"g3/2A/4A/4 "A/E"(Bc) | "D"d2 "D/A"(dA) |
P:B
|: "D"D3/2D/4D/4 "D/A"(FA) | "D"d3/2D/4D/4 "D/A"FF
|  "D"F3/2F/4F/4 "D/A"(EF) | "G"Gz "D"F2
|  "A"E3/2E/4E/4 "A/E"(FG) | "A"A3/2A/4A/4 "A/E"(ce)
|  "A"g3/2g/4g/4  "A/E"(fe)
|[1 "D"(ed) "D/A"d2 :|[2 "D"(ed) "D/A"da |
P:C
|: "D"f3/2a/4a/4 "D/A"(a/^g/a) | "D"f3/2a/4a/4 "D/A"(a/^g/a)
|  "D"d'3/2f/4f/4 "D/A"(fg) | "D"a2- "D/A"aa :|
|: "G"b3/2b/4b/4 "G/B"bb | "D"ba "D/F#"f/d/f | "A/G"g3/2g/4g/4 "A"(ec)
| [1 "D"d2 "D/F#"(dg) :| [2 "D"d2 "D/A"d2 ||
